icon/cg/insert-before.svg

<svg viewBox="0 0 24 24" fill="none" xmlns="http://www.w3.org/2000/svg" height="1em" width="1em">
  <path d="M3 5C3 5.55228 3.44772 6 4 6H20C20.5523 6 21 5.55228 21 5C21 4.44772 20.5523 4 20 4H4C3.44772 4 3 4.44772 3 5Z" fill="currentColor"/>
  <path d="M12 20C12.5523 20 13 19.5523 13 19V16H16C16.5523 16 17 15.5523 17 15C17 14.4477 16.5523 14 16 14H13V11C13 10.4477 12.5523 10 12 10C11.4477 10 11 10.4477 11 11V14H8C7.44772 14 7 14.4477 7 15C7 15.5523 7.44772 16 8 16H11V19C11 19.5523 11.4477 20 12 20Z" fill="currentColor"/>
</svg>

<svg width="24" height="24" fill="none" xmlns="http://www.w3.org/2000/svg"><path d="M3 5a1 1 0 0 0 1 1h16a1 1 0 1 0 0-2H4a1 1 0 0 0-1 1ZM12 20a1 1 0 0 0 1-1v-3h3a1 1 0 1 0 0-2h-3v-3a1 1 0 1 0-2 0v3H8a1 1 0 1 0 0 2h3v3a1 1 0 0 0 1 1Z" fill="currentColor"/></svg>
